X: 1
T: Beauty of the North
T: 8 x 32S 3C (John Drewry, Deeside Book 1)
P: The Beauty of the North
M: 4/4
R: Strathspey
C: Capt. S. Fraser (Hunter Colln.)
C: arr. T. Traub 12-19-97
L: 1/8
K: Eb
|: E |"Eb"G,<EE>F "Cm"G>A B<c|"Fm"C<C"F7"F>E "Bb"D<B,"Bb7"B,>A,|"Eb"G,<EE>F "Cm"G>A B<g|"Ab"f>d "Bb"e/d/c/B/ "Eb"e2-e :|
g|"Eb"e>g B<g e>gb>g|"Fm"a>gf>e "Bb"d<BB>g|"Eb"e>gB>g e/f/g/a/ b>g|"Fm"a>f "Bb"e/d/c/B/ "Eb"e2 e>f|
"Eb"g>e B<G "Cm"e>B G<E|"Fm"A>G"F7"G>F "Bb"D<B,B,>A,|"Eb"G,<EE<A G<eB<g|"Ab"f>d "Bb"e/d/c/B/ "Eb"e2-e |]
